Hatter-kde/actions/24/im-google-talk.svg

<?xml version="1.0" encoding="UTF-8"?>
<svg viewBox="0 0 24 24" xmlns="http://www.w3.org/2000/svg">
 <defs id="defs3051">
  <style id="current-color-scheme" type="text/css">.ColorScheme-Text {
        color:#363636;
      }</style>
 </defs>
 <path class="ColorScheme-Text" d="m12 4c-4.4182 0-8 2.6864-8 6 0 3.2629 3.4761 5.9117 7.8008 5.9922v4.0078c8.2164-4.7437 8.1992-7.7342 8.1992-10 0-3.3136-3.5818-6-8-6zm-3.7402 3.0645h3.082v3.084h-0.009766c0.0065 0.073 0.009766 0.1464 0.009766 0.2207 0 1.2634-0.96672 2.2989-2.2012 2.4102v-0.89258c0.746-0.1077 1.3203-0.74178 1.3203-1.5176 0-0.075-0.009102-0.1485-0.019532-0.2207h-2.1816v-3.084zm4.3984 0h3.082v3.084h-0.009765c0.0065 0.073 0.009765 0.1464 0.009765 0.2207 0 1.2634-0.96671 2.2989-2.2012 2.4102v-0.89258c0.746-0.1077 1.3203-0.74178 1.3203-1.5176 0-0.075-0.007098-0.1485-0.017578-0.2207h-2.1836v-3.084z" fill="currentColor"/>
</svg>

<svg xmlns="http://www.w3.org/2000/svg" viewBox="0 0 24 24">
  <defs id="defs3051">
    <style type="text/css" id="current-color-scheme">
      .ColorScheme-Text {
        color:#363636;
      }
      </style>
  </defs>
 <path style="fill:currentColor;fill-opacity:1;stroke:none" 
     d="M 12 4 C 7.5818339 4 3.999999 6.6864 4 10 C 4 13.2629 7.4761023 15.911687 11.800781 15.992188 L 11.800781 20 C 20.017202 15.2563 20 12.2658 20 10 C 20 6.6864 16.418165 4 12 4 z M 8.2597656 7.0644531 L 11.341797 7.0644531 L 11.341797 10.148438 L 11.332031 10.148438 C 11.338531 10.221438 11.341797 10.294841 11.341797 10.369141 C 11.341797 11.632541 10.375082 12.667997 9.140625 12.779297 L 9.140625 11.886719 C 9.886623 11.779019 10.460937 11.144941 10.460938 10.369141 C 10.460938 10.294141 10.451836 10.220638 10.441406 10.148438 L 8.2597656 10.148438 L 8.2597656 7.0644531 z M 12.658203 7.0644531 L 15.740234 7.0644531 L 15.740234 10.148438 L 15.730469 10.148438 C 15.736969 10.221438 15.740234 10.294841 15.740234 10.369141 C 15.740234 11.632541 14.773521 12.667997 13.539062 12.779297 L 13.539062 11.886719 C 14.285061 11.779019 14.859375 11.144941 14.859375 10.369141 C 14.859375 10.294141 14.852277 10.220638 14.841797 10.148438 L 12.658203 10.148438 L 12.658203 7.0644531 z "
     class="ColorScheme-Text"
     />
</svg>
